svgs/solid/file-dashed-line.svg

<svg xmlns="http://www.w3.org/2000/svg" viewBox="0 0 576 512"><!--! Font Awesome Pro 6.2.0 by @fontawesome - https://fontawesome.com License - https://fontawesome.com/license (Commercial License) Copyright 2022 Fonticons, Inc. --><path d="M96 64c0-35.3 28.7-64 64-64H320V128c0 17.7 14.3 32 32 32H480v96H96V64zm0 304H480v80c0 35.3-28.7 64-64 64H160c-35.3 0-64-28.7-64-64V368zM480 128H352V0L480 128zM24 288H136c13.3 0 24 10.7 24 24s-10.7 24-24 24H24c-13.3 0-24-10.7-24-24s10.7-24 24-24zm224 0h80c13.3 0 24 10.7 24 24s-10.7 24-24 24H248c-13.3 0-24-10.7-24-24s10.7-24 24-24zm192 0H552c13.3 0 24 10.7 24 24s-10.7 24-24 24H440c-13.3 0-24-10.7-24-24s10.7-24 24-24z"/></svg>

<svg xmlns="http://www.w3.org/2000/svg" viewBox="0 0 576 512"><!--! Font Awesome Pro 6.1.2 by @fontawesome - https://fontawesome.com License - https://fontawesome.com/license (Commercial License) Copyright 2022 Fonticons, Inc. --><path d="M96 64C96 28.65 124.7 0 160 0H320V128C320 145.7 334.3 160 352 160H480V256H96V64zM96 368H480V448C480 483.3 451.3 512 416 512H160C124.7 512 96 483.3 96 448V368zM352 128V0L480 128H352zM136 288C149.3 288 160 298.7 160 312C160 325.3 149.3 336 136 336H24C10.75 336 0 325.3 0 312C0 298.7 10.75 288 24 288H136zM328 288C341.3 288 352 298.7 352 312C352 325.3 341.3 336 328 336H248C234.7 336 224 325.3 224 312C224 298.7 234.7 288 248 288H328zM552 288C565.3 288 576 298.7 576 312C576 325.3 565.3 336 552 336H440C426.7 336 416 325.3 416 312C416 298.7 426.7 288 440 288H552z"/></svg>
